X: 10050
T: KEVRA'S HORNPIPE
C: Bob McQuillen 9 April 93
B: Bob's Note Book 10 #50
%R: hornpipe, reel
Z: 2020 John Chambers <jc:trillian.mit.edu>
M: C
L: 1/8
K: C
cA \
| GAGE G2cd | ecdc A2GF | EGcG AGce | fedc dcBA |\
| GAGE CEGc | ecdc A2gf | egec GBdf | e2c2 c2 :|
|: Bc \
| dedB G2Bc | dcde f2ef | gage cdec | dcBA G2cB |\
| AcfA Gcec | BcdB cege | fagf ecdc | A2c2 c2 :|
%%begintext align
%% About once a year I get
%% a great phone call from Wendell, MA, and it's Susan Kevra asking
%% me if I'd like to join her and husband Bill Tomczak in playing
%% for a dance at the Guiding Star Grange in Greenfield. It's always
%% a real happy evening, and such fun to get together with two
%% good friends.
%%endtext

%%sep 1 1 500

%%sep 1 1 500

